X: 1737
T: Sensiz Kalan Gönlümde
C: İrfan Özbakır
O: Turkey
F: http://compmusic.upf.edu/node/140
N: rast--sarki--duyek--sensiz_kalan--irfan_ozbakir
N: makam= rast
N: form= sarki
N: usul= duyek = 8/4
M: 8/4
L: 1/16
K: C _1/4B ^f  
Q: 1/4=120
%%MIDI tuningsystem comma53
z2 de de dc c3/2B/ AB .c4  | z2 cd cd cB B3/2A/ GA .B4  | 
w:   |   | 
z2 Bc Bc BA dc BA G4  | z2 de de dc c3/2B/ AB .c4  | 
w:   |   | 
z2 cd cd cB B3/2A/ GA .B4  | z2 gg ge ed dc BA G4  | 
w:   |   | 
d2 d4 dc c3B cB BA  | A6 AB c3/2B/ AB A4  | \
w:  Sen siz  ka *  lan  *  gön *  lüm  |  de  SAZ  | 
c2 c4 cB B3A B2 BA  | 
w:  bil  ki  ha *  yat  *  vî râ  | 
BA G4 AB c2 BA G4  | f2 f2 _7/8e2 d2 c4 f2 (3fed  | \
w:  ne    |  bil  ki  *  ha yat  vî râ  | 
d8 .G2 .B2 d4  | 
w:  ne   SAZ  | 
zg fe dc BA dc BA G4  | d2 d4 dc c3B cB BA  | 
w:  SAZ  |  Sen siz  ka *  lan  *  gön *  lüm  | 
A6 AB c3/2B/ AB A4  | c2 c4 cB B3A B2 BA  | \
w:  de  SAZ  |  bil  ki  ha *  yat  *  vî râ  | 
BA G4 AB c2 BA G4  | 
w:  ne    | 
f2 f2 _7/8e2 d2 c4 f2 (3fed  | d8 .G2 .B2 d4  | \
w:  bil  ki  *  ha yat  vî râ  |  ne   SAZ  | 
zg fe dc BA GA Bc d4  | 
w:  SAZ  | 
f2 g4 gf f3_7/8e (3gfe ed  | _7/8e8 e3/2d/ cd e4  | \
w:  Sen  yok sun  *  ya  *  ya nım  |  da  SAZ  | 
d2 _7/8e4 ed d2 cB f2 ed  | 
w:  bu  â lem *  den  *  *  ba na   | 
d8 c2 (3BAG d4  | d2 e2 d2 c2 B3A dc BA  | \
w:  ne   SAZ  |  bu  â *  lem den  *  ba *  na   | 
G6 AB cc BA G4  | 
w:  ne   SAZ  | 
zg fe dc BA GA Bc d4  | f2 g4 gf f3_7/8e (3gfe ed  | 
w:  SAZ  |  Sen  yok sun  *  ya  *  ya nım  | 
_7/8e8 e3/2d/ cd e4  | d2 _7/8e4 ed d2 cB f2 ed  | \
w:  da  SAZ  |  bu  â lem *  den  *  *  ba na   | 
d8 c2 (3BAG d4  | 
w:  ne   SAZ  | 
d2 e2 d2 c2 B3A dc BA  | G6 AB cc BA G4  | \
w:  bu  â *  lem den  *  ba *  na   |  ne   SAZ  | 
G2 gg g2 gf fe ef g4  | 
w:  SAZ  | 
d2 g4 g2 g2 gf e3f  | g8 zd ef g4  | \
w:  Bu  dün ya da  *  *  sev me  |  yen  SAZ  | 
d2 e2 d2 c2 B3A dc BA  | 
w:  ya  de *  li  ya  *  dî *  vâ  | 
G6 AB cc BA G4  | g2 a2 g2 f2 _7/8e3f g2 fe  | \
w:  ne   SAZ  |  ya  de *  li  ya  *  dî vâ  | 
d8 GA Bc d4  | 
w:  ne   SAZ  | 
G2 gg g2 gf fe ef g4  | d2 g4 g2 g2 gf e3f  | \
w:  SAZ  |  Bu  dün ya da  *  *  sev me  | 
g8 zd ef g4  | 
w:  yen  SAZ  | 
d2 e2 d2 c2 B3A dc BA  | G6 AB cc BA G4  | \
w:  ya  de *  li  ya  *  dî *  vâ  |  ne   SAZ  | 
g2 a2 g2 f2 _7/8e3f g2 fe  | 
w:  ya  de *  li  ya  *  dî vâ  | 
d8 GA Bc d4  | zg fe dc BA GA Bc d4  | \
w:  ne   SAZ  |  SAZ  | 
f2 g4 gf f3_7/8e (3gfe ed  | 
w:  Sen  yok sun  *  ya  *  ya nım  | 
_7/8e8 e3/2d/ cd e4  | d2 _7/8e4 ed d2 cB f2 ed  | \
w:  da  SAZ  |  bu  â lem *  den  *  *  ba na   | 
d8 c2 (3BAG d4  | 
w:  ne   SAZ  | 
d2 e2 d2 c2 B3A dc BA  | G6 AB cc BA G4  | |


